Newaita-dark/apps/48/com.github.alcinnz.odysseus.svg

<svg height="48" viewBox="0 0 48 48" width="48" xmlns="http://www.w3.org/2000/svg" xmlns:xlink="http://www.w3.org/1999/xlink"><linearGradient id="a"><stop offset="0" stop-opacity=".313726"/><stop offset=".222222" stop-opacity=".27451"/><stop offset="1" stop-opacity="0"/></linearGradient><radialGradient id="b" cx="450.908936" cy="189.579361" gradientTransform="matrix(.00000026 -.117199 -.210958 -.00000015 66.784728 95.392994)" gradientUnits="userSpaceOnUse" r="21.166656" xlink:href="#a"/><radialGradient id="c" cx="450.908936" cy="189.579361" gradientTransform="matrix(-.00000026 .117199 .210958 .00000015 -19.155178 -11.291223)" gradientUnits="userSpaceOnUse" r="21.166656" xlink:href="#a"/><radialGradient id="d" cx="450.908936" cy="189.579361" gradientTransform="matrix(-.00000026 -.117199 .210958 -.00000015 -19.155178 95.392994)" gradientUnits="userSpaceOnUse" r="21.166656" xlink:href="#a"/><radialGradient id="e" cx="450.908936" cy="189.579361" gradientTransform="matrix(.00000026 .117199 -.210958 .00000015 66.784725 -11.291224)" gradientUnits="userSpaceOnUse" r="21.166656" xlink:href="#a"/><linearGradient id="f" gradientTransform="matrix(.0200401 0 0 .093759 18.698079 20.158175)" gradientUnits="userSpaceOnUse" x1="255.323059" x2="255.323044" y1="233.5" y2="254.666656"><stop offset="0" stop-opacity=".27451"/><stop offset="1" stop-opacity="0"/></linearGradient><linearGradient id="g" gradientUnits="userSpaceOnUse" x1="23.814786" x2="23.814786" y1="4.34415649995" y2="42.0509015"><stop offset="0" stop-color="#4db6ac"/><stop offset="1" stop-color="#26a69a"/></linearGradient><linearGradient id="h" gradientUnits="userSpaceOnUse" x1="23.814786" x2="23.814786" y1="42.0509015" y2="4.34415649995"><stop offset="0" stop-color="#bdbdbd"/><stop offset="1" stop-color="#e0e0e0"/></linearGradient><linearGradient id="i" gradientUnits="userSpaceOnUse" x1="20.83791025" x2="20.83791025" y1="27.30840454759" y2="17.1020815119"><stop offset="0" stop-color="#8d6e63"/><stop offset="1" stop-color="#a1887f"/></linearGradient><linearGradient id="j" gradientUnits="userSpaceOnUse" x1="20.83792635" x2="20.83792635" y1="24.75683369046" y2="19.65366264762"><stop offset="0" stop-color="#424242"/><stop offset="1" stop-color="#616161"/></linearGradient><path d="m27.289062 42.050781h3.96875v-1.984375h-3.96875zm0 0" fill="url(#b)"/><path d="m20.339844 42.050781h-3.96875v1.984375h3.96875zm0 0" fill="url(#c)"/><path d="m20.339844 42.050781h-3.96875v-1.984375h3.96875zm0 0" fill="url(#d)"/><path d="m27.289062 42.050781h3.96875v1.984375h-3.96875zm0 0" fill="url(#e)"/><path d="m20.339844 41.554688h6.949218v2.480468h-6.949218zm0 0" fill="url(#f)"/><path d="m23.816406 4.34375c10.410156 0 18.851563 8.441406 18.851563 18.855469 0 10.410156-8.441407 18.851562-18.851563 18.851562-10.414062 0-18.855468-8.441406-18.855468-18.851562 0-10.414063 8.441406-18.855469 18.855468-18.855469zm0 0" fill="url(#g)"/><path d="m23.816406 42.050781c-10.445312 0-18.855468-8.410156-18.855468-18.851562 0-.0625 0-.125 0-.1875.101562 10.359375 8.472656 18.667969 18.855468 18.667969 10.382813 0 18.753906-8.308594 18.851563-18.667969v.1875c0 10.441406-8.410157 18.851562-18.851563 18.851562zm0 0" fill-opacity=".196078"/><path d="m23.816406 4.34375c-10.445312 0-18.855468 8.410156-18.855468 18.855469v.183593c.101562-10.359374 8.472656-18.667968 18.855468-18.667968 10.382813 0 18.753906 8.308594 18.851563 18.667968 0-.0625 0-.125 0-.183593 0-10.445313-8.410157-18.855469-18.851563-18.855469zm0 0" fill="#fff" fill-opacity=".392157"/><path d="m327.885355 160.797446c4.624559-2.541424 6.66603-8.124224 4.749547-13.082084l-50.453516-129.695948c-2.374773-6.041089-9.540755-8.582513-15.123555-5.332824l-36.663166 21.164646c-5.624463 3.24969-7.040994 10.707311-2.958051 15.748496l87.116681 108.572965c3.208027 3.999618 8.83249 5.124511 13.33206 2.624749zm0 0" style="fill:#fff;fill-opacity:.392157;stroke-width:3;stroke-linecap:round;stroke-linejoin:round;stroke:#212121" transform="matrix(.093759 0 0 .093759 0 20.158175)"/><path d="m180.107801-95.9697c-4.624559 2.541424-6.666031 8.124224-4.749547 13.082084l50.453515 129.695948c2.374774 6.04109 9.540756 8.582514 15.123556 5.332824l36.663166-21.164646c5.624463-3.249689 7.040994-10.70731 2.958051-15.748496l-87.116681-108.572965c-3.208027-3.999618-8.83249-5.12451-13.33206-2.624749zm0 0" fill="none" stroke="#212121" stroke-linecap="round" stroke-linejoin="round" stroke-width="3" transform="matrix(.093759 0 0 .093759 0 20.158175)"/><path d="m16.886719 11.160156c-.433594.238282-.625.761719-.445313 1.226563l4.730469 12.160156c.222656.566406.894531.804687 1.417969.5l3.4375-1.984375c.527344-.304688.660156-1.003906.277344-1.476562l-8.167969-10.179688c-.300781-.375-.828125-.480469-1.25-.246094zm0 0" fill-opacity=".235294"/><path d="m23.816406 4.203125c-10.523437 0-18.996094 8.472656-18.996094 18.996094 0 10.519531 8.472657 18.992187 18.996094 18.992187 10.519532 0 18.992188-8.472656 18.992188-18.992187 0-10.523438-8.472656-18.996094-18.992188-18.996094zm0 .28125c10.367188 0 18.710938 8.34375 18.710938 18.714844 0 10.367187-8.34375 18.710937-18.710938 18.710937-10.371094 0-18.714844-8.34375-18.714844-18.710937 0-10.371094 8.34375-18.714844 18.714844-18.714844zm0 0" fill="#212121"/><path d="m14.882812 31.136719s1.988282-2.417969 5.085938-2.972657c5.84375-1.039062 9.339844-3.183593 11.292969-5.242187 2.453125-2.585937 3.46875-5.679687 3.46875-5.679687s-13.890625-3.96875-18.929688 1.980468c-3.695312 4.363282-.917969 11.914063-.917969 11.914063zm0 0" fill="url(#h)"/><path d="m20.839844 18.234375c2.191406 0 3.96875 1.777344 3.96875 3.972656 0 2.191407-1.777344 3.96875-3.96875 3.96875-2.195313 0-3.972656-1.777343-3.972656-3.96875 0-2.195312 1.777343-3.972656 3.972656-3.972656zm0 0" fill="url(#i)"/><path d="m20.839844 20.21875c1.09375 0 1.984375.890625 1.984375 1.988281 0 1.09375-.890625 1.984375-1.984375 1.984375-1.097656 0-1.988282-.890625-1.988282-1.984375 0-1.097656.890626-1.988281 1.988282-1.988281zm0 0" fill="url(#j)"/><path d="m25.394531 15.945312c-3.628906-.003906-7.429687.722657-9.59375 3.277344-1.542969 1.820313-1.957031 4.195313-1.917969 6.34375.039063-1.996094.507813-4.125 1.917969-5.789062 2.164063-2.558594 5.964844-3.28125 9.59375-3.277344 4.246094.003906 8.253907 1.007812 9.148438 1.246094.125-.316406.1875-.503906.1875-.503906s-4.519531-1.289063-9.335938-1.296876zm0 0" fill="#fff"/><path d="m34.375 18.140625c-.480469 1.109375-1.476562 3.054687-3.113281 4.78125-1.953125 2.058594-5.449219 4.203125-11.292969 5.242187-3.097656.554688-5.085938 2.972657-5.085938 2.972657s-.894531-2.4375-.992187-5.34375c-.117187 3.320312.992187 6.335937.992187 6.335937s1.988282-2.417968 5.085938-2.972656c5.84375-1.039062 9.339844-3.183594 11.292969-5.242188 2.453125-2.585937 3.46875-5.679687 3.46875-5.679687s-.125-.035156-.355469-.09375zm0 0" fill-opacity=".235294"/><g fill="none" stroke="#212121" stroke-width="3" transform="matrix(.093759 0 0 .093759 0 20.158175)"><path d="m158.734842 117.093287s21.206308-25.789204 54.244819-31.705306c62.327382-11.082275 99.615488-33.955091 120.446832-55.911327 26.164168-27.5807 36.996467-60.577549 36.996467-60.577549s-148.152519-42.329291-201.897387 21.122983c-39.412903 46.537223-9.790731 127.071199-9.790731 127.071199zm0 0"/><path d="m222.270441-20.518572c23.372768 0 42.329291 18.956523 42.329291 42.370954 0 23.372768-18.956523 42.329291-42.329291 42.329291-23.414431 0-42.370954-18.956523-42.370954-42.329291 0-23.414431 18.956523-42.370954 42.370954-42.370954zm0 0" stroke-linecap="round" stroke-linejoin="round"/><path d="m222.270441.646073c11.665553 0 21.164645 9.499093 21.164645 21.206309 0 11.665552-9.499092 21.164645-21.164645 21.164645-11.707215 0-21.206308-9.499093-21.206308-21.164645 0-11.707216 9.499093-21.206309 21.206308-21.206309zm0 0" stroke-linecap="round" stroke-linejoin="round"/></g><path d="m20.339844 20.71875c.550781 0 .996094.441406.996094.992188 0 .546874-.445313.992187-.996094.992187-.546875 0-.992188-.445313-.992188-.992187 0-.550782.445313-.992188.992188-.992188zm0 0" fill="#fff" fill-opacity=".156863"/></svg>

<?xml version="1.0" encoding="UTF-8"?>
<svg xmlns="http://www.w3.org/2000/svg" xmlns:xlink="http://www.w3.org/1999/xlink" width="48px" height="48px" viewBox="0 0 48 48" version="1.1">
<defs>
<radialGradient id="radial0" gradientUnits="userSpaceOnUse" cx="450.908936" cy="189.579361" fx="450.908936" fy="189.579361" r="21.166656" gradientTransform="matrix(0.000000261256,-0.117199,-0.210958,-0.000000152308,66.784728,95.392994)">
<stop offset="0" style="stop-color:rgb(0%,0%,0%);stop-opacity:0.313726;"/>
<stop offset="0.222222" style="stop-color:rgb(0%,0%,0%);stop-opacity:0.27451;"/>
<stop offset="1" style="stop-color:rgb(0%,0%,0%);stop-opacity:0;"/>
</radialGradient>
<radialGradient id="radial1" gradientUnits="userSpaceOnUse" cx="450.908936" cy="189.579361" fx="450.908936" fy="189.579361" r="21.166656" gradientTransform="matrix(-0.000000261256,0.117199,0.210958,0.000000152308,-19.155178,-11.291223)">
<stop offset="0" style="stop-color:rgb(0%,0%,0%);stop-opacity:0.313726;"/>
<stop offset="0.222222" style="stop-color:rgb(0%,0%,0%);stop-opacity:0.27451;"/>
<stop offset="1" style="stop-color:rgb(0%,0%,0%);stop-opacity:0;"/>
</radialGradient>
<radialGradient id="radial2" gradientUnits="userSpaceOnUse" cx="450.908936" cy="189.579361" fx="450.908936" fy="189.579361" r="21.166656" gradientTransform="matrix(-0.000000261256,-0.117199,0.210958,-0.000000152308,-19.155178,95.392994)">
<stop offset="0" style="stop-color:rgb(0%,0%,0%);stop-opacity:0.313726;"/>
<stop offset="0.222222" style="stop-color:rgb(0%,0%,0%);stop-opacity:0.27451;"/>
<stop offset="1" style="stop-color:rgb(0%,0%,0%);stop-opacity:0;"/>
</radialGradient>
<radialGradient id="radial3" gradientUnits="userSpaceOnUse" cx="450.908936" cy="189.579361" fx="450.908936" fy="189.579361" r="21.166656" gradientTransform="matrix(0.000000261256,0.117199,-0.210958,0.000000152308,66.784725,-11.291224)">
<stop offset="0" style="stop-color:rgb(0%,0%,0%);stop-opacity:0.313726;"/>
<stop offset="0.222222" style="stop-color:rgb(0%,0%,0%);stop-opacity:0.27451;"/>
<stop offset="1" style="stop-color:rgb(0%,0%,0%);stop-opacity:0;"/>
</radialGradient>
<linearGradient id="linear0" gradientUnits="userSpaceOnUse" x1="255.323059" y1="233.5" x2="255.323044" y2="254.666656" gradientTransform="matrix(0.0200401,0,0,0.093759,18.698079,20.158175)">
<stop offset="0" style="stop-color:rgb(0%,0%,0%);stop-opacity:0.27451;"/>
<stop offset="1" style="stop-color:rgb(0%,0%,0%);stop-opacity:0;"/>
</linearGradient>
<linearGradient id="linear1" gradientUnits="userSpaceOnUse" x1="254" y1="-168.666672" x2="254" y2="233.5" gradientTransform="matrix(0.093759,0,0,0.093759,0,20.158175)">
<stop offset="0" style="stop-color:rgb(30.19608%,71.372551%,67.450982%);stop-opacity:1;"/>
<stop offset="1" style="stop-color:rgb(14.901961%,65.098041%,60.392159%);stop-opacity:1;"/>
</linearGradient>
<linearGradient id="linear2" gradientUnits="userSpaceOnUse" x1="254" y1="233.5" x2="254" y2="-168.666672" gradientTransform="matrix(0.093759,0,0,0.093759,0,20.158175)">
<stop offset="0" style="stop-color:rgb(74.117649%,74.117649%,74.117649%);stop-opacity:1;"/>
<stop offset="1" style="stop-color:rgb(87.843138%,87.843138%,87.843138%);stop-opacity:1;"/>
</linearGradient>
<linearGradient id="linear3" gradientUnits="userSpaceOnUse" x1="222.25" y1="64.166664" x2="222.25" y2="-31.083334" gradientTransform="matrix(0.107153,0,0,0.107153,-2.976844,20.432754)">
<stop offset="0" style="stop-color:rgb(55.29412%,43.137255%,38.82353%);stop-opacity:1;"/>
<stop offset="1" style="stop-color:rgb(63.137257%,53.333336%,49.803922%);stop-opacity:1;"/>
</linearGradient>
<linearGradient id="linear4" gradientUnits="userSpaceOnUse" x1="222.25" y1="64.166664" x2="222.25" y2="-31.083334" gradientTransform="matrix(0.0535766,0,0,0.0535766,8.930527,21.319002)">
<stop offset="0" style="stop-color:rgb(25.882354%,25.882354%,25.882354%);stop-opacity:1;"/>
<stop offset="1" style="stop-color:rgb(38.039216%,38.039216%,38.039216%);stop-opacity:1;"/>
</linearGradient>
</defs>
<g id="surface1">
<path style=" stroke:none;fill-rule:nonzero;fill:url(#radial0);" d="M 27.289062 42.050781 L 31.257812 42.050781 L 31.257812 40.066406 L 27.289062 40.066406 Z M 27.289062 42.050781 "/>
<path style=" stroke:none;fill-rule:nonzero;fill:url(#radial1);" d="M 20.339844 42.050781 L 16.371094 42.050781 L 16.371094 44.035156 L 20.339844 44.035156 Z M 20.339844 42.050781 "/>
<path style=" stroke:none;fill-rule:nonzero;fill:url(#radial2);" d="M 20.339844 42.050781 L 16.371094 42.050781 L 16.371094 40.066406 L 20.339844 40.066406 Z M 20.339844 42.050781 "/>
<path style=" stroke:none;fill-rule:nonzero;fill:url(#radial3);" d="M 27.289062 42.050781 L 31.257812 42.050781 L 31.257812 44.035156 L 27.289062 44.035156 Z M 27.289062 42.050781 "/>
<path style=" stroke:none;fill-rule:nonzero;fill:url(#linear0);" d="M 20.339844 41.554688 L 27.289062 41.554688 L 27.289062 44.035156 L 20.339844 44.035156 Z M 20.339844 41.554688 "/>
<path style=" stroke:none;fill-rule:nonzero;fill:url(#linear1);" d="M 23.816406 4.34375 C 34.226562 4.34375 42.667969 12.785156 42.667969 23.199219 C 42.667969 33.609375 34.226562 42.050781 23.816406 42.050781 C 13.402344 42.050781 4.960938 33.609375 4.960938 23.199219 C 4.960938 12.785156 13.402344 4.34375 23.816406 4.34375 Z M 23.816406 4.34375 "/>
<path style=" stroke:none;fill-rule:nonzero;fill:rgb(0%,0%,0%);fill-opacity:0.196078;" d="M 23.816406 42.050781 C 13.371094 42.050781 4.960938 33.640625 4.960938 23.199219 C 4.960938 23.136719 4.960938 23.074219 4.960938 23.011719 C 5.0625 33.371094 13.433594 41.679688 23.816406 41.679688 C 34.199219 41.679688 42.570312 33.371094 42.667969 23.011719 C 42.667969 23.074219 42.667969 23.136719 42.667969 23.199219 C 42.667969 33.640625 34.257812 42.050781 23.816406 42.050781 Z M 23.816406 42.050781 "/>
<path style=" stroke:none;fill-rule:nonzero;fill:rgb(100%,100%,100%);fill-opacity:0.392157;" d="M 23.816406 4.34375 C 13.371094 4.34375 4.960938 12.753906 4.960938 23.199219 C 4.960938 23.257812 4.960938 23.320312 4.960938 23.382812 C 5.0625 13.023438 13.433594 4.714844 23.816406 4.714844 C 34.199219 4.714844 42.570312 13.023438 42.667969 23.382812 C 42.667969 23.320312 42.667969 23.257812 42.667969 23.199219 C 42.667969 12.753906 34.257812 4.34375 23.816406 4.34375 Z M 23.816406 4.34375 "/>
<path style="fill-rule:nonzero;fill:rgb(100%,100%,100%);fill-opacity:0.392157;stroke-width:3;stroke-linecap:round;stroke-linejoin:round;stroke:rgb(12.941177%,12.941177%,12.941177%);stroke-opacity:1;stroke-miterlimit:4;" d="M 327.885355 160.797446 C 332.509914 158.256022 334.551385 152.673222 332.634902 147.715362 L 282.181386 18.019414 C 279.806613 11.978325 272.640631 9.436901 267.057831 12.68659 L 230.394665 33.851236 C 224.770202 37.100926 223.353671 44.558547 227.436614 49.599732 L 314.553295 158.172697 C 317.761322 162.172315 323.385785 163.297208 327.885355 160.797446 Z M 327.885355 160.797446 " transform="matrix(0.093759,0,0,0.093759,0,20.158175)"/>
<path style="fill:none;stroke-width:3;stroke-linecap:round;stroke-linejoin:round;stroke:rgb(12.941177%,12.941177%,12.941177%);stroke-opacity:1;stroke-miterlimit:4;" d="M 180.107801 -95.9697 C 175.483242 -93.428276 173.44177 -87.845476 175.358254 -82.887616 L 225.811769 46.808332 C 228.186543 52.849422 235.352525 55.390846 240.935325 52.141156 L 277.598491 30.97651 C 283.222954 27.726821 284.639485 20.2692 280.556542 15.228014 L 193.439861 -93.344951 C 190.231834 -97.344569 184.607371 -98.469461 180.107801 -95.9697 Z M 180.107801 -95.9697 " transform="matrix(0.093759,0,0,0.093759,0,20.158175)"/>
<path style=" stroke:none;fill-rule:nonzero;fill:rgb(0%,0%,0%);fill-opacity:0.235294;" d="M 16.886719 11.160156 C 16.453125 11.398438 16.261719 11.921875 16.441406 12.386719 L 21.171875 24.546875 C 21.394531 25.113281 22.066406 25.351562 22.589844 25.046875 L 26.027344 23.0625 C 26.554688 22.757812 26.6875 22.058594 26.304688 21.585938 L 18.136719 11.40625 C 17.835938 11.03125 17.308594 10.925781 16.886719 11.160156 Z M 16.886719 11.160156 "/>
<path style=" stroke:none;fill-rule:nonzero;fill:rgb(12.941177%,12.941177%,12.941177%);fill-opacity:1;" d="M 23.816406 4.203125 C 13.292969 4.203125 4.820312 12.675781 4.820312 23.199219 C 4.820312 33.71875 13.292969 42.191406 23.816406 42.191406 C 34.335938 42.191406 42.808594 33.71875 42.808594 23.199219 C 42.808594 12.675781 34.335938 4.203125 23.816406 4.203125 Z M 23.816406 4.484375 C 34.183594 4.484375 42.527344 12.828125 42.527344 23.199219 C 42.527344 33.566406 34.183594 41.910156 23.816406 41.910156 C 13.445312 41.910156 5.101562 33.566406 5.101562 23.199219 C 5.101562 12.828125 13.445312 4.484375 23.816406 4.484375 Z M 23.816406 4.484375 "/>
<path style=" stroke:none;fill-rule:nonzero;fill:url(#linear2);" d="M 14.882812 31.136719 C 14.882812 31.136719 16.871094 28.71875 19.96875 28.164062 C 25.8125 27.125 29.308594 24.980469 31.261719 22.921875 C 33.714844 20.335938 34.730469 17.242188 34.730469 17.242188 C 34.730469 17.242188 20.839844 13.273438 15.800781 19.222656 C 12.105469 23.585938 14.882812 31.136719 14.882812 31.136719 Z M 14.882812 31.136719 "/>
<path style=" stroke:none;fill-rule:nonzero;fill:url(#linear3);" d="M 20.839844 18.234375 C 23.03125 18.234375 24.808594 20.011719 24.808594 22.207031 C 24.808594 24.398438 23.03125 26.175781 20.839844 26.175781 C 18.644531 26.175781 16.867188 24.398438 16.867188 22.207031 C 16.867188 20.011719 18.644531 18.234375 20.839844 18.234375 Z M 20.839844 18.234375 "/>
<path style=" stroke:none;fill-rule:nonzero;fill:url(#linear4);" d="M 20.839844 20.21875 C 21.933594 20.21875 22.824219 21.109375 22.824219 22.207031 C 22.824219 23.300781 21.933594 24.191406 20.839844 24.191406 C 19.742188 24.191406 18.851562 23.300781 18.851562 22.207031 C 18.851562 21.109375 19.742188 20.21875 20.839844 20.21875 Z M 20.839844 20.21875 "/>
<path style=" stroke:none;fill-rule:nonzero;fill:rgb(100%,100%,100%);fill-opacity:1;" d="M 25.394531 15.945312 C 21.765625 15.941406 17.964844 16.667969 15.800781 19.222656 C 14.257812 21.042969 13.84375 23.417969 13.882812 25.566406 C 13.921875 23.570312 14.390625 21.441406 15.800781 19.777344 C 17.964844 17.21875 21.765625 16.496094 25.394531 16.5 C 29.640625 16.503906 33.648438 17.507812 34.542969 17.746094 C 34.667969 17.429688 34.730469 17.242188 34.730469 17.242188 C 34.730469 17.242188 30.210938 15.953125 25.394531 15.945312 Z M 25.394531 15.945312 "/>
<path style=" stroke:none;fill-rule:nonzero;fill:rgb(0%,0%,0%);fill-opacity:0.235294;" d="M 34.375 18.140625 C 33.894531 19.25 32.898438 21.195312 31.261719 22.921875 C 29.308594 24.980469 25.8125 27.125 19.96875 28.164062 C 16.871094 28.71875 14.882812 31.136719 14.882812 31.136719 C 14.882812 31.136719 13.988281 28.699219 13.890625 25.792969 C 13.773438 29.113281 14.882812 32.128906 14.882812 32.128906 C 14.882812 32.128906 16.871094 29.710938 19.96875 29.15625 C 25.8125 28.117188 29.308594 25.972656 31.261719 23.914062 C 33.714844 21.328125 34.730469 18.234375 34.730469 18.234375 C 34.730469 18.234375 34.605469 18.199219 34.375 18.140625 Z M 34.375 18.140625 "/>
<path style="fill:none;stroke-width:3;stroke-linecap:butt;stroke-linejoin:miter;stroke:rgb(12.941177%,12.941177%,12.941177%);stroke-opacity:1;stroke-miterlimit:4;" d="M 158.734842 117.093287 C 158.734842 117.093287 179.94115 91.304083 212.979661 85.387981 C 275.307043 74.305706 312.595149 51.43289 333.426493 29.476654 C 359.590661 1.895954 370.42296 -31.100895 370.42296 -31.100895 C 370.42296 -31.100895 222.270441 -73.430186 168.525573 -9.977912 C 129.11267 36.559311 158.734842 117.093287 158.734842 117.093287 Z M 158.734842 117.093287 " transform="matrix(0.093759,0,0,0.093759,0,20.158175)"/>
<path style="fill:none;stroke-width:3;stroke-linecap:round;stroke-linejoin:round;stroke:rgb(12.941177%,12.941177%,12.941177%);stroke-opacity:1;stroke-miterlimit:4;" d="M 222.270441 -20.518572 C 245.643209 -20.518572 264.599732 -1.562049 264.599732 21.852382 C 264.599732 45.22515 245.643209 64.181673 222.270441 64.181673 C 198.85601 64.181673 179.899487 45.22515 179.899487 21.852382 C 179.899487 -1.562049 198.85601 -20.518572 222.270441 -20.518572 Z M 222.270441 -20.518572 " transform="matrix(0.093759,0,0,0.093759,0,20.158175)"/>
<path style="fill:none;stroke-width:3;stroke-linecap:round;stroke-linejoin:round;stroke:rgb(12.941177%,12.941177%,12.941177%);stroke-opacity:1;stroke-miterlimit:4;" d="M 222.270441 0.646073 C 233.935994 0.646073 243.435086 10.145166 243.435086 21.852382 C 243.435086 33.517934 233.935994 43.017027 222.270441 43.017027 C 210.563226 43.017027 201.064133 33.517934 201.064133 21.852382 C 201.064133 10.145166 210.563226 0.646073 222.270441 0.646073 Z M 222.270441 0.646073 " transform="matrix(0.093759,0,0,0.093759,0,20.158175)"/>
<path style=" stroke:none;fill-rule:nonzero;fill:rgb(100%,100%,100%);fill-opacity:0.156863;" d="M 20.339844 20.71875 C 20.890625 20.71875 21.335938 21.160156 21.335938 21.710938 C 21.335938 22.257812 20.890625 22.703125 20.339844 22.703125 C 19.792969 22.703125 19.347656 22.257812 19.347656 21.710938 C 19.347656 21.160156 19.792969 20.71875 20.339844 20.71875 Z M 20.339844 20.71875 "/>
</g>
</svg>
